X:1
T:All Round My Hat
M:6/8
L:1/8
K:D
 D3E-D C| D3 F2 G| A3G-F E| D2- C A,3| D3E-D C| D3 F2 G| A2- cB-A G|\
 A3 A2 B| c2 B A2 G| A3 D2 D| A2 AG-F E| D2- C A,3| D3E-D C| D D2 F2 G|\
 A3A/2-G/2 FE| D3||
